X:1
T:Toss the pot
T:16th century madrigal attrib. Thomas Ravenscroft (arr.)
T:Toss the pot
C:16th century madrigal
C:attrib. Thomas Ravenscroft (arr.)
%%score [ ( 1 2 ) ( 3 4 ) ]
L:1/8
M:6/8
K:F
V:1 treble nm="Soprano (S.A.)" snm="S. (S.A.)"
V:2 treble 
V:3 bass nm="Bass (T.B.)" snm="B. (T.B.)"
V:4 bass 
V:1
"^SOPRANOS & ALTOS"!f!"^Chorus" F>GA A>Bc | d>cB AFF | F>G(A/B/) c>BA | B>BG AF z!fine! |] %4
w: Toss the pot, toss the pot:|let us be mer- ry And|drink 'till our _ cheeks be as|red as a cher- ry.|
w: ||||
!p!"^Verses 1, 3 and 5" Acd c2 A | c B2 c3 | AGF E2 F | G2 F E3 | GFG- G2 A | BGc c2 c | %10
w: ||||||
w: * La,~la,~la...~etc. * * *||||||
 c A2 G>FG |[M:3/8] F3!D.C.! :|[M:6/8]!f!"^Verses 2, 4 and 6" FAB c2 c | d>(cB) A2 z | cBA G2 c | %15
w: ||2.~We drink, ca- rouse with|heart most _ free:|A heart- y draught I|
w: ||2.~&~4.~La,~la,~la...~etc. * * * *|||
 _e d2 c2 z | cAB G2 F | B2 A G2 (A/B/) | c>(BA) B G2 |[M:3/8] A3!D.C.! :| %20
w: drink to thee;|Then fill the pot a-|gain to me, And _|ev- er _ toss the|pot.|
w: |||||
V:2
 F>CF F>GA | B>cF FCC | C>EF E>EF | G>FE FF x |] CF>G A2 A | BG>F F3 | F2 C C2 C | C2 =B, C3 | %8
 ECD C>DC | D>EF E2 F/G/ | A>GF F2 E |[M:3/8] F3 :|[M:6/8] CF>G A2 A | (BA)G F3 | AGF E2 G | %15
 G2 F E3 | GFG (E>D)C | (D>E)F E2 (F/G/) | A>(GF) F2 E |[M:3/8] F3 :| %20
V:3
"^TENORS & BASSES"!f! A,>B,C C>CF | F>ED CCC | A,>G,F, G,>G,A, | D>DC CC z |] %4
w: ||||
w: ||||
!f!"^unis." F,A,B, C2 C | D>(CB,) A,2 z | CB,A, G,2 C | _E D2 C2 z | CA,B, (G,>G,)F, | %9
w: 1.~We take no thought, we|have no _ care,|For still we spend and|nev- er spare;|'Till of all mon- ey our|
w: 3.~And when our mo- ney|is all _ spent,|Then sell our goods and|spend our rent,|Or drink it up _ with|
 B,2 A,"^div." G,2 (A,/B,/) | C>(B,A,) B, G,2 |[M:3/8] A,3 :| %12
w: purse is bare, We _|ev- er _ toss the|pot.|
w: one con- sent, And _|ev- er _ toss the|pot.|
[M:6/8]"^2. & 4."!p!"^; 6."!f! A,CD C2 F | F>(ED) C3 | FFC C2 C | C2 =B, C3 | ECD (CG,)A, | %17
w: |||||
w: |||||
 (B,G,)C C2 C | C F2 D C2 |[M:3/8] C3 :| %20
w: |||
w: |||
V:4
 F,>F,F, F,>F,F, | B,,>B,,B,, F,F,F, | F,>E,D, C,>C,F, | B,,>B,,C, F,F,, x |] x6 | x6 | x6 | x6 | %8
 x6 | x5 F, | F,2 F, B,, C,2 |[M:3/8] F,3 :|[M:6/8] F,F,B,, F,2 F, | B,,2 B,, F,3 | F,F,F, C,2 C, | %15
 G,2 G,, C,3 | C,F,B,, (C,>B,,)A,, | G,,2 G,, C,2 F, | F,2 F, B,, C,2 |[M:3/8] [F,,F,]3 :| %20

